assets/img/braze_icons/chevron-selector-horizontal.svg

<svg fill="none" height="24" viewBox="0 0 24 24" width="24" xmlns="http://www.w3.org/2000/svg"><g clip-rule="evenodd" fill="#801ed7" fill-rule="evenodd"><path d="m9.70711 6.29289c.39049.39053.39049 1.02369 0 1.41422l-4.2929 4.29289 4.2929 4.2929c.39049.3905.39049 1.0237 0 1.4142-.39053.3905-1.02369.3905-1.41422 0l-5-5c-.39052-.3905-.39052-1.0237 0-1.4142l5-5.00001c.39053-.39052 1.02369-.39052 1.41422 0z"/><path d="m14.2929 6.29289c.3905-.39052 1.0237-.39052 1.4142 0l5 5.00001c.3905.3905.3905 1.0237 0 1.4142l-5 5c-.3905.3905-1.0237.3905-1.4142 0s-.3905-1.0237 0-1.4142l4.2929-4.2929-4.2929-4.29289c-.3905-.39053-.3905-1.02369 0-1.41422z"/></g></svg>

<svg width="24" height="24" viewBox="0 0 24 24" fill="none" xmlns="http://www.w3.org/2000/svg">
<path fill-rule="evenodd" clip-rule="evenodd" d="M9.70711 6.29289C10.0976 6.68342 10.0976 7.31658 9.70711 7.70711L5.41421 12L9.70711 16.2929C10.0976 16.6834 10.0976 17.3166 9.70711 17.7071C9.31658 18.0976 8.68342 18.0976 8.29289 17.7071L3.29289 12.7071C2.90237 12.3166 2.90237 11.6834 3.29289 11.2929L8.29289 6.29289C8.68342 5.90237 9.31658 5.90237 9.70711 6.29289Z" fill="#801ED7"/>
<path fill-rule="evenodd" clip-rule="evenodd" d="M14.2929 6.29289C14.6834 5.90237 15.3166 5.90237 15.7071 6.29289L20.7071 11.2929C21.0976 11.6834 21.0976 12.3166 20.7071 12.7071L15.7071 17.7071C15.3166 18.0976 14.6834 18.0976 14.2929 17.7071C13.9024 17.3166 13.9024 16.6834 14.2929 16.2929L18.5858 12L14.2929 7.70711C13.9024 7.31658 13.9024 6.68342 14.2929 6.29289Z" fill="#801ED7"/>
</svg>
